X:1
T:NO1
T:NIZEYIMANA Parfait
T:OVERTURE
T:ESPRESSIONE DI SENTIMENTI
T:2018
T:2018
T:2018
T:2018
T:2018
T:2018
T:2018
T:2018
T:2018
T:2018
T:2018
T:2018
T:2018
T:2018
T:2018
C:NIZEYIMANA Parfait
Z:2018
%%score { ( 1 2 ) | ( 3 4 ) }
L:1/8
Q:1/4=90
M:3/4
K:Bb
V:1 treble nm="Piano" snm="Pno."
V:2 treble 
V:3 bass 
V:4 bass 
V:1
!<(! [Bd]4 c2!<)! | B6 | d4 g2 | e4 c2 | [Ad]6 | B2 A4 | c4 e2 | [Bd]4 B2 | A4!>(! B2!>)! | B6 | %10
 d4 c2 | e2 [df]4 | e2 e2 [Bd]2- | [Bd]2 d4 | A2 [Ac]4 | [GB]6 | %16
"_cresc." B,/D/G/B,/ D/G/B,/D/ G/B,/D/G/ | C/E/G/C/ E/G/C/E/ G/C/E/G/ | %18
 D/^F/A/D/ F/A/D/F/ A/D/F/A/ | B,/D/G/B,/ D/G/B,/D/ G/B,/D/G/ | B,/E/G/B,/ E/G/B,/E/ G/B,/E/G/ | %21
 B,/D/F/B,/ D/F/B,/D/ F/B,/D/^F/ | D/^F/A/D/ F/A/D/F/ A/D/F/A/ | D/G/B/D/ G/B/D/G/ B/D/G/B/ | %24
 E/G/B/E/ G/B/E/G/ B/E/G/B/ | E/G/c/E/ G/c/E/G/ c/E/G/c/ | D/^F/A/D/ F/A/D/F/ A/D/F/A/ | %27
"_dim." D/G/B/D/ G/B/D/G/ B/D/G/B/ | E/G/c/E/ G/c/E/G/ c/E/G/c/ | D/^F/A/D/ F/A/D/F/ A/D/F/A/ | %30
 D^F [DA]2 G2- | G6 | [G-Bd]4 e2 | dc d2 d^c | d4 !arpeggio![Bd]2 | cd e2 d^c | d2 [Ad]2- [Ad]2 | %37
!<(! [Bd]4 c2!<)! | B6 | d4 g2 | e4 c2 | [Ad]6 | B2 A4 | c4 e2 | [Bd]4 B2 | A4!>(! B2!>)! | B6 | %47
"_cresc." B,/D/G/B,/ D/G/B,/D/ G/B,/D/G/ | C/E/G/C/ E/G/C/E/ G/C/E/G/ | %49
 D/^F/A/D/ F/A/D/F/ A/D/F/A/ | B,/D/G/B,/ D/G/B,/D/ G/B,/D/G/ | B,/E/G/B,/ E/G/B,/E/ G/B,/E/G/ | %52
 B,/D/F/B,/ D/F/B,/D/ F/B,/D/^F/ | D/^F/A/D/ F/A/D/F/ A/D/F/A/ | D/G/B/D/ G/B/D/G/ B/D/G/B/ | %55
 E/G/B/E/ G/B/E/G/ B/E/G/B/ | E/G/c/E/ G/c/E/G/ c/E/G/c/ |"_dim." D/^F/A/D/ F/A/D/F/ A/D/F/A/ | %58
 D/G/B/D/ G/B/D/G/ B/D/G/B/ | E/G/c/E/ G/c/E/G/ c/E/G/c/ | D/^F/A/D/ F/A/D/F/ A/D/F/A/ | %61
 D^F [DA]2 G2- | G6 | dc dc G2- | G2 ce dB | c4 [Ad]2- | [Ad]6 | Bc Bc e2- | e2 Ac A2 | %69
 [ce]3 [cd]3 | B6 | g2 d2 g2 | d2 [ce]4 | [ce]2 [cf]4 | [cf]2 [Ad]4 | G2 D2 G2 | D2 [CE]4 | %77
 [CE]2 [CF]4 | [CF]2 [A,D]4 | B,C B,C E2- | E2 A,C A,2 | [CE]3 [CE]3 | B,6 |: z2 B,D GE- | %84
 E3 G [^FA]2- | [FA]2 [Bc]2 A2 | [DG]6- :| [DG]6 |] %88
V:2
 G4 G2 | G6 | G4 G2 | c4 c2 | F6 | G2 G2 ^F2 | G4 G2 | F4 G2 | G2 ^F2 G2 | G6 | G4 A2 | A2 A4 | %12
 c2 c2 F2- | F2 G4 | G2 ^F4 | D6 | x6 | x6 | x6 | x6 | x6 | x6 | x6 | x6 | x6 | x6 | x6 | x6 | x6 | %29
 x6 | A,2 C2 D2- | D6 | B2 cd G2 | G2- G2- G2 | G4 G2 | G2 G2- G2 | G2 F2- F2 | G4 G2 | G6 | %39
 G4 G2 | c4 c2 | F6 | G2 G2 ^F2 | G4 G2 | F4 G2 | G2 ^F2 G2 | G6 | x6 | x6 | x6 | x6 | x6 | x6 | %53
 x6 | x6 | x6 | x6 | x6 | x6 | x6 | x6 | A,2 C2 D2- | D6 | G4 G2- | G2 GG BB | c4 F2- | F6 | %67
 G4 B2- | B2 F2 ^F2 | G3- G3 | G6 | G2 G2 G2 | G2 G4 | G2 G4 | G2 F2 AE | G,2 G,2 G,2 | G,2 G,4 | %77
 G,2 G,4 | G,2 F,4 | G,4 B,2- | B,2 F,2 ^F,2 | G,3 G,3 | G,6 |: x2 B,3 C- | C3 C D2- | D2 D2 D2 | %86
 B,6- :| B,6 |] %88
V:3
 D4 D2 | E6 | B,4 D2 | C4 C2 | D6 | D2 D4 | E4 E2 | D4 D2 | C4 B,2 | G,6 | G,4 F,2- | F,2 A,4 | %12
 A,4 B,2- | B,2 D4 | C2- C4 | (C2 B,4) | x6 | x6 | x6 | x6 | x6 | x6 | x6 | x6 | x6 | x6 | x6 | %27
 x6 | x6 | x6 | A,2 D,2 D,2- | D,6 | x6 | x6 | x6 | x6 | z2 z2 D,2 | D4 D2 | E6 | B,4 D2 | C4 C2 | %41
 D6 | D2 D4 | E4 E2 | D4 D2 | C4 B,2 | G,6 | x6 | x6 | x6 | x6 | x6 | x6 | x6 | x6 | x6 | x6 | x6 | %58
 x6 | x6 | x6 | A,2 D,2 D,2- | D,6 | D4 DC | DC C2 D2 | CE DB, D2- | D6 | B,4 E2- | E2 A,2 A,2 | %69
 C3 B,3 | D6 | D4 D2- | D2 C4 | C2 B,4 | B,2 D4 | D,4 D,2- | D,2 C,4 | C,2 B,,4 | B,,2 D,4 | %79
 D,4 E,2- | E,2 A,,2 A,,2 | C,3 B,,3 | B,,6 |: G,4- G,E,- | E,4 A,2- | A,6 | B,6- :| B,6 |] %88
V:4
 G,4 G,2 | B,6 | G,4 G,2 | G,4 A,2 | A,6 | B,2 A,4 | G,4 G,2 | B,4 B,2 | A,4 G,2 | G,,6 | %10
 D,4 C,2- | C,2 D,4 | A,,4 F,2- | F,2 G,4 | A,2- A,4 | G,6 | G,3/2D,3/2B,,3/2D,3/2 | %17
 C,3/2G,3/2^F,3/2E,3/2 | D,3/2C,3/2B,,3/2A,,3/2 | G,,3/2G,3/2D,3/2B,,3/2 | E,3/2D,3/2^C,3/2=C,3/2 | %21
 B,,3/2A,,3/2^G,,3/2=G,,3/2 | D,,3/2D,3/2A,,3/2^G,,3/2 | G,,3/2G,3/2^F,3/2=F,3/2 | %24
 E,3/2G,3/2D,3/2^C,3/2 | C,3/2^F,3/2=F,3/2E,3/2 | D,3/2D,,3/2A,,3/2^G,,3/2 | %27
 G,,3/2G,3/2D,3/2^F,3/2 | C,3/2G,3/2^F,3/2E,3/2 | D,3/2D,,3/2A,,3/2^G,,3/2 | D,^C, D,D,, G,,2- | %31
 G,,6 | G,^F, G,A, B,A, | G,^F, D,E, D,^C, | B,,C, B,,A,, G,,G, | ^F,G, E,G, D,E, | %36
 B,,C, (D,2 D,,2) | G,4 G,2 | B,6 | G,4 G,2 | G,4 A,2 | A,6 | B,2 A,4 | G,4 G,2 | B,4 B,2 | %45
 A,4 G,2 | G,,6 | G,3/2D,3/2B,,3/2D,3/2 | C,3/2G,3/2^F,3/2E,3/2 | D,3/2C,3/2B,,3/2A,,3/2 | %50
 G,,3/2G,3/2D,3/2B,,3/2 | E,3/2D,3/2^C,3/2=C,3/2 | B,,3/2A,,3/2^G,,3/2=G,,3/2 | %53
 D,,3/2D,3/2A,,3/2^G,,3/2 | G,,3/2G,3/2^F,3/2=F,3/2 | E,3/2G,3/2D,3/2^C,3/2 | %56
 C,3/2^F,3/2=F,3/2E,3/2 | D,3/2D,,3/2A,,3/2^G,,3/2 | G,,3/2G,3/2D,3/2^F,3/2 | %59
 C,3/2G,3/2^F,3/2E,3/2 | D,3/2D,,3/2A,,3/2^G,,3/2 | D,^C, D,D,, G,,2- | G,,6 | [G,B,]4 G,2- | %64
 G,2 G,2 A,2 | G,4 D,2- | D,6 | G,4 G,2 | E,2 F,2 ^F,E, | C,3 F,3 | G,6 | G,4 G,2- | G,2 G,4 | %73
 G,2 F,4 | F,2 F,4 | G,,4 G,,2- | G,,2 G,,4 | G,,2 F,,4 | F,,2 D,,4 | G,,4 G,,2 | E,,2 F,,2 ^F,,2 | %81
 C,,3 F,,3 | G,,6 |: B,,4- B,,C,- | C,4 D,2- | D,6 | [G,,D,]6- :| [G,,D,]6 |] %88

